root/assets/icons/g2e_heart.svg

<svg width="64" height="52" viewBox="0 0 64 52" fill="none" xmlns="http://www.w3.org/2000/svg">
<path d="M53.7609 10.1946L53.7643 10.198C59.2679 15.6798 59.2648 24.5794 53.7643 30.0579L37.7257 46.0323C34.5663 49.179 29.4407 49.179 26.2814 46.0323L12.0604 31.8683L33.8212 10.1946C39.325 4.71282 48.2603 4.71602 53.7609 10.1946Z" fill="url(#paint0_linear_1075_1899)" stroke="url(#paint1_linear_1075_1899)" stroke-width="0.374273"/>
<path d="M53.7609 10.1946L53.7643 10.198C59.2679 15.6798 59.2648 24.5794 53.7643 30.0579L37.7257 46.0323C34.5663 49.179 29.4407 49.179 26.2814 46.0323L12.0604 31.8683L33.8212 10.1946C39.325 4.71282 48.2603 4.71602 53.7609 10.1946Z" fill="url(#paint2_linear_1075_1899)" stroke="url(#paint3_linear_1075_1899)" stroke-width="0.374273"/>
<foreignObject x="-7.55294" y="-7.57247" width="73.2318" height="69.6293"><div xmlns="http://www.w3.org/1999/xhtml" style="backdrop-filter:blur(6.74px);clip-path:url(#bgblur_0_1075_1899_clip_path);height:100%;width:100%"></div></foreignObject><path data-figma-bg-blur-radius="13.4738" d="M10.6334 10.5982L10.6368 10.5947C15.9209 5.33208 24.4999 5.33497 29.7808 10.5947L51.1438 31.8722L37.3199 45.6406C34.3802 48.5683 29.6116 48.5678 26.672 45.64L10.6334 29.6655C5.34938 24.4026 5.35242 15.858 10.6334 10.5982Z" fill="url(#paint4_linear_1075_1899)" stroke="url(#paint5_linear_1075_1899)" stroke-width="1.49709"/>
<defs>
<clipPath id="bgblur_0_1075_1899_clip_path" transform="translate(7.55294 7.57247)"><path d="M10.6334 10.5982L10.6368 10.5947C15.9209 5.33208 24.4999 5.33497 29.7808 10.5947L51.1438 31.8722L37.3199 45.6406C34.3802 48.5683 29.6116 48.5678 26.672 45.64L10.6334 29.6655C5.34938 24.4026 5.35242 15.858 10.6334 10.5982Z"/>
</clipPath><linearGradient id="paint0_linear_1075_1899" x1="55.8281" y1="9.72328" x2="21.2948" y2="41.6376" gradientUnits="userSpaceOnUse">
<stop stop-color="#F26DFF"/>
<stop offset="1" stop-color="#FF027A"/>
</linearGradient>
<linearGradient id="paint1_linear_1075_1899" x1="42.7011" y1="3.92715" x2="50.712" y2="45.4292" gradientUnits="userSpaceOnUse">
<stop stop-color="white"/>
<stop offset="1" stop-color="white" stop-opacity="0"/>
</linearGradient>
<linearGradient id="paint2_linear_1075_1899" x1="55.8281" y1="9.72328" x2="21.2948" y2="41.6376" gradientUnits="userSpaceOnUse">
<stop stop-color="#F26DFF"/>
<stop offset="1" stop-color="#FF027A"/>
</linearGradient>
<linearGradient id="paint3_linear_1075_1899" x1="42.7011" y1="3.92715" x2="50.712" y2="45.4292" gradientUnits="userSpaceOnUse">
<stop stop-color="white"/>
<stop offset="1" stop-color="white" stop-opacity="0"/>
</linearGradient>
<linearGradient id="paint4_linear_1075_1899" x1="31.3306" y1="49.0644" x2="40.7009" y2="7.39847" gradientUnits="userSpaceOnUse">
<stop stop-color="white" stop-opacity="0.2"/>
<stop offset="1" stop-color="white" stop-opacity="0.49"/>
</linearGradient>
<linearGradient id="paint5_linear_1075_1899" x1="3.94293" y1="21.2174" x2="45.5876" y2="13.1142" gradientUnits="userSpaceOnUse">
<stop stop-color="white"/>
<stop offset="1" stop-color="white" stop-opacity="0"/>
</linearGradient>
</defs>
</svg>

<svg xmlns="http://www.w3.org/2000/svg" width="64" height="52" fill="none" viewBox="0 0 64 52"><path fill="url(#a)" stroke="url(#b)" stroke-width=".374" d="m53.76 10.195.004.003c5.504 5.482 5.5 14.381 0 19.86L37.726 46.032c-3.16 3.147-8.285 3.147-11.445 0l-14.22-14.164 21.76-21.673c5.504-5.482 14.44-5.479 19.94 0Z"/><path fill="url(#c)" stroke="url(#d)" stroke-width=".374" d="m53.76 10.195.004.003c5.504 5.482 5.5 14.381 0 19.86L37.726 46.032c-3.16 3.147-8.285 3.147-11.445 0l-14.22-14.164 21.76-21.673c5.504-5.482 14.44-5.479 19.94 0Z"/><foreignObject width="73.232" height="69.629" x="-7.553" y="-7.572"><div xmlns="http://www.w3.org/1999/xhtml" style="backdrop-filter:blur(6.74px);clip-path:url(#e);height:100%;width:100%"/></foreignObject><path fill="url(#f)" stroke="url(#g)" stroke-width="1.497" d="m10.633 10.598.004-.003c5.284-5.263 13.863-5.26 19.144 0l21.363 21.277L37.32 45.641c-2.94 2.927-7.708 2.927-10.648-.001L10.633 29.666c-5.284-5.263-5.28-13.808 0-19.068Z" data-figma-bg-blur-radius="13.474"/><defs><linearGradient id="a" x1="55.828" x2="21.295" y1="9.723" y2="41.638" gradientUnits="userSpaceOnUse"><stop stop-color="#f26dff"/><stop offset="1" stop-color="#ff027a"/></linearGradient><linearGradient id="b" x1="42.701" x2="50.712" y1="3.927" y2="45.429" gradientUnits="userSpaceOnUse"><stop stop-color="#fff"/><stop offset="1" stop-color="#fff" stop-opacity="0"/></linearGradient><linearGradient id="c" x1="55.828" x2="21.295" y1="9.723" y2="41.638" gradientUnits="userSpaceOnUse"><stop stop-color="#f26dff"/><stop offset="1" stop-color="#ff027a"/></linearGradient><linearGradient id="d" x1="42.701" x2="50.712" y1="3.927" y2="45.429" gradientUnits="userSpaceOnUse"><stop stop-color="#fff"/><stop offset="1" stop-color="#fff" stop-opacity="0"/></linearGradient><linearGradient id="f" x1="31.331" x2="40.701" y1="49.064" y2="7.398" gradientUnits="userSpaceOnUse"><stop stop-color="#fff" stop-opacity=".2"/><stop offset="1" stop-color="#fff" stop-opacity=".49"/></linearGradient><linearGradient id="g" x1="3.943" x2="45.588" y1="21.217" y2="13.114" gradientUnits="userSpaceOnUse"><stop stop-color="#fff"/><stop offset="1" stop-color="#fff" stop-opacity="0"/></linearGradient><clipPath id="e" transform="translate(7.553 7.572)"><path d="m10.633 10.598.004-.003c5.284-5.263 13.863-5.26 19.144 0l21.363 21.277L37.32 45.641c-2.94 2.927-7.708 2.927-10.648-.001L10.633 29.666c-5.284-5.263-5.28-13.808 0-19.068"/></clipPath></defs></svg>
